icons/svg/note.svg

﻿<?xml version="1.0" encoding="utf-8"?>
<!DOCTYPE svg PUBLIC "-//W3C//DTD SVG 1.1//EN" "http://www.w3.org/Graphics/SVG/1.1/DTD/svg11.dtd">
<svg xmlns="http://www.w3.org/2000/svg" xmlns:xlink="http://www.w3.org/1999/xlink" version="1.1" baseProfile="full" width="24" height="24" viewBox="0 0 24.00 24.00" enable-background="new 0 0 24.00 24.00" xml:space="preserve">
	<path fill="#000000" fill-opacity="1" stroke-width="0.2" stroke-linejoin="round" d="M 13.9991,9.99831L 13.9991,4.49831L 19.4991,9.99831M 4.99915,2.99831C 3.89413,2.99831 3.00916,3.89431 3.00916,4.99831L 2.99915,18.9983C 2.99915,20.1023 3.88513,20.9983 4.98914,20.9983L 18.9991,20.9983C 20.1031,20.9983 20.9991,20.1023 20.9991,18.9983L 20.9991,8.99831L 14.9991,2.99831L 4.99915,2.99831 Z "/>
</svg>

<svg xmlns="http://www.w3.org/2000/svg" version="1.1" baseProfile="full" width="24" height="24" viewBox="0 0 24.00 24.00" xml:space="preserve"><path fill="#000" fill-opacity="1" stroke-width=".2" stroke-linejoin="round" d="M14 9.998v-5.5l5.5 5.5m-14.5-7c-1.106 0-1.99.896-1.99 2l-.01 14c0 1.104.885 2 1.99 2H19c1.103 0 2-.896 2-2v-10l-6-6H5z"/></svg>
